build/security/UnlockSolid.svg

<svg xmlns="http://www.w3.org/2000/svg" fill="none" viewBox="0 0 24 24" focusable="false"><path d="M0 0H24V24H0z"/><path fill="#74767B" fill-rule="evenodd" d="M14.3188 7.11534C14.3188 5.63058 15.5225 4.42695 17.0072 4.42695C18.492 4.42695 19.6956 5.63058 19.6956 7.11534L19.6956 7.19509C19.6956 7.55408 19.9866 7.84509 20.3456 7.84509C20.7046 7.84509 20.9956 7.55408 20.9956 7.19509L20.9956 7.11534C20.9956 4.91261 19.21 3.12695 17.0072 3.12695C14.8045 3.12695 13.0188 4.91261 13.0188 7.11534L13.0188 8.99998L8 8.99998C6.34315 8.99998 5 10.3431 5 12L5 17C5 18.6568 6.34315 20 8 20L16 20C17.6569 20 19 18.6568 19 17L19 12C19 10.3431 17.6569 8.99998 16 8.99998L14.3188 8.99998L14.3188 7.11534ZM12 12.9917C12.359 12.9917 12.65 13.2827 12.65 13.6417L12.65 15.3582C12.65 15.7172 12.359 16.0082 12 16.0082C11.641 16.0082 11.35 15.7172 11.35 15.3582L11.35 13.6417C11.35 13.2827 11.641 12.9917 12 12.9917Z"/></svg>

<svg xmlns="http://www.w3.org/2000/svg" fill="none" viewBox="0 0 24 24" focusable="false"><path fill="#74767B" fill-rule="evenodd" d="M14.31 7.11c0-1.48 1.21-2.69 2.69-2.69a2.69 2.69 0 0 1 2.69 2.69v.08c0 .36.29.65.65.65s.65-.29.65-.65v-.08c0-2.2-1.79-3.99-3.99-3.99s-3.99 1.79-3.99 3.99V9H8c-1.66 0-3 1.34-3 3v5c0 1.65 1.34 3 3 3h8c1.65 0 3-1.35 3-3v-5c0-1.66-1.35-3-3-3h-1.69zM12 12.99c.35 0 .65.29.65.65v1.71c0 .36-.3.65-.65.65-.36 0-.65-.29-.65-.65v-1.71c0-.36.29-.65.65-.65"/></svg>
